tools/download-figma-icons/icons/solid/window-alarm.svg

<svg width="24" height="24" viewBox="0 0 24 24" fill="none" xmlns="http://www.w3.org/2000/svg">
<path fill-rule="evenodd" clip-rule="evenodd" d="M7.49999 8.25C7.69499 8.25 7.88249 8.175 8.03249 8.0325L14.5575 1.5H12.4425L6.96749 6.9675C6.67499 7.26 6.67499 7.74 6.96749 8.0325C7.11749 8.175 7.30499 8.25 7.49999 8.25ZM15.9675 6.96746L12.435 10.5H14.565L17.0325 8.03246C17.325 7.73996 17.325 7.25996 17.0325 6.96746C16.74 6.67496 16.26 6.67496 15.9675 6.96746ZM14.1525 21.1425H20.25V12H3.75V21.1425H9.8475C10.1108 20.1975 10.9725 19.5 12 19.5C13.0275 19.5 13.89 20.1975 14.1525 21.1425ZM11.25 21.75C11.25 22.1625 11.5875 22.5 12 22.5C12.4125 22.5 12.75 22.1625 12.75 21.75C12.75 21.3375 12.4125 21 12 21C11.5875 21 11.25 21.3375 11.25 21.75ZM3 0H21C21.4125 0 21.75 0.3375 21.75 0.75V21.8925C21.75 22.305 21.4125 22.6425 21 22.6425H14.0625C13.7175 23.4375 12.9233 24 12 24C11.0775 24 10.2825 23.4375 9.9375 22.6425H3C2.5875 22.6425 2.25 22.305 2.25 21.8925V0.75C2.25 0.3375 2.5875 0 3 0ZM11.9992 13.5H11.9985C9.5055 13.5 7.17075 14.6617 5.42175 16.7715C5.1585 17.0903 5.202 17.5635 5.5215 17.8283C5.66175 17.9438 5.8305 18 5.99925 18C6.21525 18 6.429 17.9078 6.5775 17.7285C8.0355 15.969 9.96 15 11.9985 15C14.0392 15 15.9653 15.969 17.4217 17.7285C17.6865 18.0465 18.1583 18.0923 18.4785 17.8283C18.7973 17.5635 18.8415 17.0903 18.5775 16.7715C16.83 14.6617 14.4937 13.5 11.9992 13.5ZM11.9993 16.5H11.9985C10.6388 16.5 9.36826 17.1292 8.42176 18.2715C8.15851 18.5903 8.20276 19.0635 8.52151 19.3282C8.84176 19.5922 9.31426 19.548 9.57751 19.2285C10.2338 18.4365 11.0933 18 11.9985 18C12.9053 18 13.7655 18.4365 14.4225 19.2285C14.571 19.4077 14.7848 19.5 15.0008 19.5C15.1695 19.5 15.3383 19.4438 15.4785 19.3275C15.7973 19.0635 15.8415 18.5903 15.5775 18.2715C14.631 17.1292 13.3598 16.5 11.9993 16.5Z" fill="black"/>
</svg>

<svg xmlns="http://www.w3.org/2000/svg" width="24" height="24" fill="none" viewBox="0 0 24 24"><path fill="currentColor" fill-rule="evenodd" d="M7.5 8.25a.77.77 0 0 0 .532-.217L14.557 1.5h-2.114L6.967 6.968a.756.756 0 0 0 0 1.065c.15.142.338.217.533.217m8.468-1.283L12.435 10.5h2.13l2.467-2.468a.756.756 0 0 0 0-1.065.756.756 0 0 0-1.065 0m-1.815 14.176h6.097V12H3.75v9.142h6.098A2.24 2.24 0 0 1 12 19.5a2.24 2.24 0 0 1 2.153 1.642m-2.903.607c0 .413.338.75.75.75s.75-.337.75-.75A.75.75 0 0 0 12 21a.75.75 0 0 0-.75.75M3 0h18c.413 0 .75.338.75.75v21.143c0 .412-.337.75-.75.75h-6.937A2.25 2.25 0 0 1 12 24a2.25 2.25 0 0 1-2.062-1.358H3a.75.75 0 0 1-.75-.75V.75C2.25.338 2.587 0 3 0m9 13.5h-.002c-2.492 0-4.827 1.162-6.576 3.271a.752.752 0 0 0 1.156.957C8.035 15.97 9.96 15 11.997 15c2.041 0 3.967.969 5.424 2.729a.751.751 0 0 0 1.156-.957c-1.748-2.11-4.084-3.272-6.579-3.272m0 3h-.002c-1.36 0-2.63.63-3.576 1.771a.75.75 0 1 0 1.156.957c.656-.791 1.515-1.228 2.42-1.228.907 0 1.768.436 2.425 1.229a.75.75 0 0 0 1.056.099.75.75 0 0 0 .099-1.056c-.947-1.143-2.218-1.772-3.579-1.772" clip-rule="evenodd"/></svg>
